X:24
T:GB/7b/24 Jack Williams
%%VWML:GB-7b-24-0
F:http://www.vwml.org/record/GB/7b/24
C:Transcribed by Simon Furey and Lewis Jones
L:1/4
M:4/4
I:linebreak $
K:Cmix
G | c d/c/ c E | F F G c/B/ | G G/F/ D/C/ D | C3 :| G/A/ | B G F F |$ G c/B/ G G | c c/d/ e/c/ d | c3 G | c d/c/ c E | F F G c/B/ | G G/F/ D/C/ D | C3 |]

